icons/folder_type_prisma_opened.svg

<svg xmlns="http://www.w3.org/2000/svg" viewBox="0 0 32 32"><path d="M27.4 5.5h-9.2l-2.1 4.2H4.3v16.8h25.2v-21Zm0 18.7H6.6V11.8h20.8Zm0-14.5h-8.2l1-2.1h7.1v2.1Z" style="fill:#14587f"/><path d="M25.7 13.7H.5l3.8 12.8h25.2l-3.8-12.8z" style="fill:#14587f"/><path d="M30.92 25.43a2.22 2.22 0 0 0-.11-.3l-6.54-14A2 2 0 0 0 22.61 10h-.13a2 2 0 0 0-1.67.94l-7.09 11.58a2 2 0 0 0 0 2.13l3.47 5.42a2 2 0 0 0 1.71.93 2.24 2.24 0 0 0 .57-.08l10.06-3a2 2 0 0 0 1.39-2.49Z" style="fill:#fff;fill-rule:evenodd"/><path d="M28.52 26.12 20 28.67a.36.36 0 0 1-.46-.42l3.05-14.73a.3.3 0 0 1 .35-.22.31.31 0 0 1 .21.16l5.65 12.09a.43.43 0 0 1-.2.55Zm1.46-.6-6.54-14a1.06 1.06 0 0 0-1.85-.11L14.5 23a1.08 1.08 0 0 0 0 1.16l3.5 5.42a1.12 1.12 0 0 0 1.25.46L29.3 27a1.1 1.1 0 0 0 .7-1.32.52.52 0 0 0-.06-.16Z" style="fill:#0c344b;fill-rule:evenodd"/></svg>

<svg xmlns="http://www.w3.org/2000/svg" viewBox="0 0 32 32"><title>folder_type_prisma_opened</title><path d="M27.4,5.5H18.2L16.1,9.7H4.3V26.5H29.5V5.5Zm0,18.7H6.6V11.8H27.4Zm0-14.5H19.2l1-2.1h7.1V9.7Z" style="fill:#14587f"/><polygon points="25.7 13.7 0.5 13.7 4.3 26.5 29.5 26.5 25.7 13.7" style="fill:#14587f"/><path d="M30.92,25.43a2.22,2.22,0,0,0-.11-.3l-6.54-14A2,2,0,0,0,22.61,10h-.13a2,2,0,0,0-1.67.94L13.72,22.52a2,2,0,0,0,0,2.13l3.47,5.42a2,2,0,0,0,1.71.93,2.24,2.24,0,0,0,.57-.08l10.06-3A2,2,0,0,0,30.92,25.43Z" style="fill:#fff;fill-rule:evenodd"/><path d="M28.52,26.12,20,28.67a.36.36,0,0,1-.46-.42l3.05-14.73a.3.3,0,0,1,.35-.22.31.31,0,0,1,.21.16l5.65,12.09a.43.43,0,0,1-.2.55Zm1.46-.6-6.54-14h0a1.06,1.06,0,0,0-1.85-.11L14.5,23a1.08,1.08,0,0,0,0,1.16L18,29.58a1.12,1.12,0,0,0,1.25.46L29.3,27A1.1,1.1,0,0,0,30,25.68a.52.52,0,0,0-.06-.16Z" style="fill:#0c344b;fill-rule:evenodd"/></svg>
